X: 5107
T: Bridge Of Dee, The
R: reel
M: 4/4
K: Dmajor
A,|D2 FD ADFD|GBAF EA,CA|D/D/D FD A,DFD|GBAd FDD:|
E|Ddcd BcdB|ABAF EFGE|DFAd Bdeg|fedc d2 de|
fedc BcdB|ABAF EFGE|AFAd BGBd|cage d3||

